X:1
T:Amo e sento
T:Gioan Felice Sances
T:Source : Capricci poetici---Venetia---A.Gardano---1649. Editor : André Vierendeels (23/11/16).
T:Notes : Original clefs : C1, F4 Editorial accidentals above the staff Figures in BC are notated in original print Original note values have been halved in 3-beat measures Dotted brackets indicate black notes
T:Amo e sento
T:©
T:©
T:©
T:©
C:Gioan Felice Sances
Z:©
%%score 1 2
L:1/8
Q:1/4=120
M:4/4
K:F
V:1 treble nm="Soprano" snm="S"
V:2 bass nm="BC"
V:1
 c3 (=B c4) | z2 z _e c2 cd | B3 (A B4) | z2 _AA A>G- A2 | z2 _Ac F3 G/A/ | F4 z2 ff | %6
w: A- mo _|e sen- to nel|pet- to _|u- na cru- da _|a- ma- rez- * *|za, u- na|
w: Ar- do _|e vi- vo nel|fo- co _|et al- tri _ _|non mel cre- * *|de, et al-|
w: Cor- ro _|e se- guo chi|su- ge _|per fi- nir _ _|tan- ti'af fa- * *|ni, per fi-|
 f_e- e2 z2 eg | c3 d/_e/ c4 | z2 _ef de c_d | Bc _AB G3 F- |[M:6/4] G2 B3 c _A2 F3 B | %11
w: cru- da _ a- ma-|rez- * * za,|non _ gia _ per _|mio _ di- * set- to|_ il mio mal vien da|
w: tri _ _ non mel|cre- * * de,|son _ fat _ to _|scher _ zo'e _ gio- co,|_ di bel- ta ch'a miei|
w: nir _ _ tan- ti'af-|fi- * * ni,|mà _ chi _ m'ar _|d'e _ mi _ strug- ge,|_ non mi vuol mi dis-|
 G2 B3 d c2 c3 f | d2 B2- _A2 G2 A2 G2 | G4 ^F2 G2 _e2- d2 | c2 _d2 c2 c4 =B2- |[M:3/4] c6 | %16
w: voi, il mio mal vien da|voi cru- * * da bel-|lez- za, _ cru- *|* da bel- lez- za,|_|
w: da- ni, ch'a miei da- *|ni o- * gn'al- tra ec-|ce- de, _ o- *|gn'al- tra ec- ce- de,|_|
w: prez- za, non mi vuol dis-|prez- z'e _ spie- ga i|van- ni, _ e _|spie- ga i van- ni,|_|
[M:4/4] z4 B2 BB | c3 d d2 d2 | z d/e/ f/e/f/g/ e3 d |[M:6/4] d4 F2 G2 A2- B2 | B2 AB- c2 B4 G2 | %21
w: a- mo chi|m'o- di'a mor- te|e _ _ _ _ _ mi se-|ri mio fa to _|vuol co- * * si, fa|
w: ar- do per|sa- * et- ta|e _ _ _ _ _ pe- ne|da mi- ta te _|cru- del- * * ta, da|
w: cor- ro die-|tro'a chi vo- la|e _ _ _ _ _ nul- la|so la spe- me _|m'al- let- * * to, so-|
 A2 B2 c2 c2 =Bc d2 | c6 z2 e2- _d2 | c6 z2 B2- _A2 | G2 B4- B2 _A2 G2 | G2- F4 _E6 | %26
w: te _ vuol _ co- * *|si, oi- *|me, oi- *|me, che _ gran do-|lo- * re,|
w: mi- ra te cru- del- * *|ta, oi- *|me, oi- *|me, che _ gran mar-|ti- * re,|
w: la spe- me m'a- let- * *|to, oi- *|me, oi- *|me, che _ gran tor-|men- * to,|
 z2 e2- d2 c2 c4- | c2 B2 _c2 c2- B4 | _A6 z2 A4- | A2 F2 _A2 F6 | F6 z2 f4- | f2 d2 f2 d6 | %32
w: oi- * me che|_ gran do- lo- *|re, es-|* ser a- man-|te, es-|* ser a- man-|
w: oi- * me che|_ gran mar- ti- *|re, vi-|* ver a- man-|te, vi|_ ver a- man-|
w: oi- * me che|_ gran tor- men- *|to, spe-|* rar con- for-|to, spe-|* rar con- for-|
 d6 B2 c3 d | c4 B2- c2 _d2 c2 | B6 z2 B4- | B2 G2 B2 G6 | G6 g2 f2 e2 | =B4 _ed c2 c3 _B | c12 |] %39
w: te e so- spi-|rar d'a- * mo- *|re, es|_ ser a- man-|te e so- spi-|rar d'A _ _ mo- re.|_|
w: te e non po-|ter mo- * ri- *|re, vi-|* ver a- man-|te e non po-|ter mo- * * ri- re.|_|
w: to et a- brac-|ciar il _ ven- *|to, spe-|* rar con- for-|to et a- brac-|ciar il _ _ ven- to.|_|
V:2
"^b" C,8- | C,8 | G,8 |"^b" F,8 |"^4 3" B,,4 C,4 | F,,4 F,2 G,2 | _A,4 F,4 |"^4 3" G,4 C,4 | %8
 C4 B,2 _A,2 |"^b" G,2 F,2 _E,4 |[M:6/4] _E,6 _A,2 B,4 | _E,2 D,4 E,2 F,4 | B,,6 C,6 | D,6 G,6 | %14
 _A,4 F,2 G,6 |[M:3/4] C,6 |[M:4/4] C,D,_E,F, G,2 D,2 | _E,2 F,2 B,,2 B,A, | G,4 A,4 | %19
[M:6/4] D,6 _E,6 | F,6 B,,4 _E,2 | F,6 G,6 | C,2 C2 B,2 _A,6 | z2 _A,2 G,2 F,6 | _E,4 G,2 _A,6 | %25
"^4 3" B,4 B,,2 _E,2 E,2 D,2 | C,2 C2 B,2 _A,6 |"^4 3" _D,6 _E,6 | _A,4 G,2 F,6 |"^4 3" B,,6 C,6 | %30
 F,2 G,2 A,2 B,6 |"^4 3" G,6 A,6 |"^(-natural)" D,2 E,2 ^F,2 G,4 F,2 | _E,4 D,4 F,4 | %34
 B,,2 C,2 D,2 _E,6 |"^4 3" C,6 D,6 | G,,2 G,2 F,2 _E,2 F,2 G,2 | _A,4 F,4 G,4 | C,12 |] %39

